svgs/kodi.svg

<svg xmlns="http://www.w3.org/2000/svg" viewBox="0 0 192 192"><path d="M96 16.5a5.99 5.99 0 0 0-4.314 1.941L76.139 33.97v61.535l50.721-50.703-26.546-26.361A5.99 5.99 0 0 0 96 16.5ZM47.223 62.7 18.268 91.778a6.135 6.135 0 0 0-1.771 4.31c0 1.612.637 3.161 1.771 4.309l29.11 29.079Zm100.08 2.523-30.859 31.059 26.545 26.516 4.314 4.309 26.429-26.71a6.134 6.134 0 0 0 1.771-4.309 6.135 6.135 0 0 0-1.771-4.31ZM96 116.509l-19.861 19.877v21.819l15.547 15.529a6.147 6.147 0 0 0 8.628 0l26.546-26.555-4.276-4.271Z" fill="none" stroke="#000" stroke-width="12" stroke-linecap="round" stroke-linejoin="round"/></svg>

<svg
    xmlns="http://www.w3.org/2000/svg"
    viewBox="0 0 192 192"
    id="vector">
    <path
        id="path"
        d="M 96 16.5 C 95.187 16.514 94.384 16.693 93.643 17.027 C 92.901 17.36 92.235 17.842 91.686 18.441 L 76.139 33.97 L 76.139 95.505 L 126.86 44.802 L 100.314 18.441 C 99.765 17.842 99.099 17.36 98.357 17.027 C 97.616 16.693 96.813 16.514 96 16.5 Z M 47.223 62.7 L 18.268 91.778 C 17.134 92.926 16.497 94.475 16.497 96.088 C 16.497 97.7 17.134 99.249 18.268 100.397 L 47.378 129.476 Z M 147.303 65.223 L 116.444 96.282 L 142.989 122.798 L 147.303 127.107 L 173.732 100.397 C 174.866 99.249 175.503 97.7 175.503 96.088 C 175.503 94.475 174.866 92.926 173.732 91.778 Z M 96 116.509 L 76.139 136.386 L 76.139 158.205 L 91.686 173.734 C 92.835 174.867 94.386 175.503 96 175.503 C 97.614 175.503 99.165 174.867 100.314 173.734 L 126.86 147.179 L 122.584 142.908 Z"
        fill="none"
        stroke="#000000"
        stroke-width="12"
        stroke-linecap="round"
        stroke-linejoin="round"/>
</svg>
